X: 192
T: A Fig For A Kiss
R: slip jig
M: 9/8
K: Edorian
F|:G2B E2B BAG|F2A D2A AGF|G2B E2B BAG|B/c/dB AGF E3:|
g2e g2e edB|f2d dcd fed|g2e g2e edB|dBG GBd e2f|
g2e g2e edB|f2d dcd fga|gfe fed ecA|B/c/dB AGF E3||

